!!!OTL: Mo'm Gre't, wöll der mer net gin ert Mrei?, S. 29
!!!id: R0048
**kern
*clefG2
*k[f#]
*G:
{4d
=1
4.g
8d
8e
16d
16d
8e
8d
=2
2g}
4r
=3
{4b
=4
4a
4g
4f#
4e
=5
4d
4c
4B}
=6
{8d
8d
=7
4g
4g
4a
4a
=8
4.b
8cc
8dd}
8r
=9
{16b
16b
16g
16g
=10
4d
4cc
4b
4a
=11
2.g}
==
*-
!!!minrhy: 16
!!!meters: 4/4 ]  ZZ[4
!!!cut: Mo'm Gre't, wöll der mer net gin ert Mrei?, S. 29
!!!reg: Luxemburg
!!!trd: D'Fraen um Kanddaaf an der aler Zeit, Luxemburg 1929
!!!rhy1: X__  X__.X_X_XXX_X_  X___0__
!!!rhy2: X__  X__X__X__X__  X__X__X__
!!!key: R0048  16  G 4/4 ]  ZZ[4
!!!mod: HEPTATONIK IONISCH]  AMBITUS[10b
!!!kad: 1-351
!!!akz: 1-61_2-7-5-3_1235_-5311_
!!!fot: 'a__b__c__d__
!!!for: 'a__b__c__bw_
!!!fok: '~a_\__/__\__
!! PHRAS[AUFTAKTIG]
!!!fkt: ??, Liebeslied?
!! RUDEN, J.M.:
!! PR[37] 2K[5] 2G[12] 3K[5] 3G[0] 4A[2] 4Ü[0] 5A[0] 6K[0] 6G[0]
!! 7K[2] 7G[0] 8A[0] MEHR[0] SI[25] ABS[59] SR[17] SP[8]
!! ST[24] 2k[10] 2g[22] 3k[5] 3g[0] 4d[0] 4ü[0] 5d[0] 6k[0] 6g[0]
!! 7k[0] 7g[0] 8d[0] mehr[0] si[37] dm[-12] sr[32] sp[5]
!! 1F[8] 2F[71] 3F[11] 4F[0] LF[0] 2P[8] 3P[2] 4P[0] TRI[0] DF[5] AB[63]
!! TF[0] U3K[0] U3[0] U4[0] U4Ü[0] U5[0] U6K[0] U6[0] U7K[0] U7[0]
!! N1[0] N2K[0] N2[0] N3K[0] N3[2] N4[0] N4Ü[0] N5[10] N6K[0] N6[8]
!!!n7k: 0] N7[12] O1[18] O2K[0] O2[20] O3K[0] O3[17] HÖ[13
